; HEADER_BLOCK_START
; generated by OrcaSlicer 2.3.0 on 2025-09-01 at 23:36:34
; total layer number: 63
;_GP_TOTAL_LAYER_NUMBER_PLACEHOLDER
; filament_density: 1.24
; filament_diameter: 1.75
; max_z_height: 15.70
; HEADER_BLOCK_END

; THUMBNAIL_BLOCK_START

;
; THUMBNAIL_BLOCK_END

; THUMBNAIL_BLOCK_START

;
; THUMBNAIL_BLOCK_END

; external perimeters extrusion width = 0.40mm
; perimeters extrusion width = 0.44mm
; infill extrusion width = 0.44mm
; solid infill extrusion width = 0.48mm
; top infill extrusion width = 0.38mm
; support material extrusion width = 0.38mm
; first layer extrusion width = 0.48mm

; external perimeters extrusion width = 0.40mm
; perimeters extrusion width = 0.44mm
; infill extrusion width = 0.44mm
; solid infill extrusion width = 0.48mm
; top infill extrusion width = 0.38mm
; support material extrusion width = 0.38mm
; first layer extrusion width = 0.48mm

; EXECUTABLE_BLOCK_START
M73 P0 R53
;TYPE:Custom
PRINT_START
M190 S100
M109 S210
PRINT_HUAXIAN
G90
G21
M83 ; use relative distances for extrusion
; Filament gcode
M106 S0
;LAYER_CHANGE
;Z:0.2
;HEIGHT:0.2
;BEFORE_LAYER_CHANGE
;0.2
G92 E0

G1 E-1 F1800
;AFTER_LAYER_CHANGE
;0.2
;_SET_FAN_SPEED_CHANGING_LAYER
SET_VELOCITY_LIMIT ACCEL=1000 ACCEL_TO_DECEL=500
; printing object 实体1 id:7565925 copy 0
G1 Z.6 F36000
G1 X47.236 Y118.203
G1 Z.6
G1 Z.2
G1 E1 F1800
;TYPE:Inner wall
;WIDTH:0.479999
G1 F6000
G1 X47.155 Y118.265 E.00367
G1 X46.949 Y118.593 E.01409
G1 X46.871 Y118.998 E.01501
G1 X46.864 Y123.199 E.15267
G1 X46.818 Y123.769 E.02077
G1 X46.662 Y124.45 E.0254
G1 X46.416 Y125.094 E.02507
G1 X46.08 Y125.697 E.02507
G1 X45.663 Y126.247 E.02507
G1 X45.173 Y126.732 E.02507
G1 X44.618 Y127.142 E.02507
G1 X44.012 Y127.471 E.02507
G1 X43.365 Y127.71 E.02507
G1 X42.691 Y127.856 E.02507
G1 X41.963 Y127.908 E.02651
G1 X38.042 Y127.908 E.14249
G1 X37.309 Y127.855 E.0267
G1 X36.63 Y127.707 E.02525
G1 X35.979 Y127.465 E.02525
G1 X35.369 Y127.132 E.02525
G1 X34.813 Y126.715 E.02524
G1 X34.319 Y126.22 E.02545
G1 X33.905 Y125.667 E.02508
G1 X33.572 Y125.058 E.02525
G1 X33.329 Y124.406 E.02526
G1 X33.182 Y123.727 E.02525
G1 X33.129 Y122.995 E.0267
G1 X33.136 Y88.895 E1.23931
G1 X33.182 Y88.333 E.02048
G1 X33.337 Y87.652 E.0254
G1 X33.584 Y87.007 E.02507
G1 X33.919 Y86.404 E.02507
G1 X34.337 Y85.855 E.02507
G1 X34.827 Y85.37 E.02507
G1 X35.381 Y84.959 E.02507
G1 X35.988 Y84.631 E.02507
G1 X36.635 Y84.391 E.02507
G1 X37.309 Y84.246 E.02507
G1 X38.037 Y84.194 E.02651
G1 X112.108 Y84.205 E2.69198
G1 X112.836 Y84.278 E.02659
G1 X113.494 Y84.441 E.02463
G1 X114.14 Y84.702 E.02535
G1 X114.742 Y85.053 E.0253
G1 X115.286 Y85.485 E.02526
G1 X115.763 Y85.991 E.02527
G1 X116.168 Y86.569 E.02566
G1 X116.476 Y87.175 E.02469
G1 X116.7 Y87.83 E.02516
G1 X116.83 Y88.54 E.02623
G1 X116.871 Y89.172 E.02303
G1 X116.871 Y122.974 E1.22845
G1 X116.847 Y123.504 E.01931
G1 X116.657 Y124.451 E.03511
G1 X116.414 Y125.084 E.02464
G1 X116.077 Y125.689 E.02515
G1 X115.657 Y126.239 E.02515
G1 X115.164 Y126.725 E.02515
G1 X114.607 Y127.136 E.02515
G1 X113.997 Y127.463 E.02515
G1 X113.347 Y127.701 E.02516
G1 X112.67 Y127.845 E.02515
G1 X111.94 Y127.893 E.0266
G1 X108.076 Y127.875 E.14042
G1 X107.346 Y127.819 E.02662
G1 X106.669 Y127.669 E.02518
G1 X106.021 Y127.425 E.02518
G1 X105.414 Y127.091 E.02518
G1 X104.861 Y126.674 E.02518
G1 X104.372 Y126.183 E.02518
G1 X103.958 Y125.628 E.02518
G1 X103.627 Y125.019 E.02518
G1 X103.385 Y124.37 E.02518
G1 X103.239 Y123.693 E.02518
G1 X103.186 Y122.962 E.02662
G1 X103.177 Y118.857 E.1492
G1 X103.04 Y118.454 E.01547
G1 X102.779 Y118.149 E.01457
G1 X102.435 Y117.962 E.01422
G1 X102.094 Y117.908 E.01258
G1 X47.836 Y117.915 E1.97191
G1 X47.463 Y118.029 E.01418
G1 X47.267 Y118.179 E.00895
G1 X47.5 Y118.545 F36000
G1 F6000
G1 X47.355 Y118.756 E.00933
G1 X47.308 Y118.999 E.00901
G1 X47.3 Y123.328 E.15732
G1 X47.25 Y123.839 E.01867
G1 X47.082 Y124.578 E.02753
G1 X46.813 Y125.28 E.02733
G1 X46.447 Y125.937 E.02733
G1 X45.993 Y126.536 E.02733
G1 X45.458 Y127.064 E.02733
G1 X44.854 Y127.512 E.02733
G1 X44.193 Y127.87 E.02733
G1 X43.487 Y128.131 E.02733
G1 X42.752 Y128.29 E.02733
G1 X41.978 Y128.345 E.0282
G1 X38.027 Y128.345 E.14362
G1 X37.247 Y128.289 E.02841
G1 X36.507 Y128.128 E.02753
G1 X35.797 Y127.863 E.02753
G1 X35.132 Y127.5 E.02753
G1 X34.526 Y127.046 E.02752
G1 X33.987 Y126.507 E.02772
G1 X33.537 Y125.904 E.02734
G1 X33.174 Y125.24 E.02753
G1 X32.909 Y124.53 E.02753
G1 X32.748 Y123.79 E.02753
G1 X32.692 Y123.01 E.02841
G1 X32.699 Y88.773 E1.24428
G1 X32.75 Y88.263 E.01865
G1 X32.918 Y87.524 E.02753
G1 X33.187 Y86.822 E.02733
G1 X33.553 Y86.165 E.02733
G1 X34.007 Y85.566 E.02733
G1 X34.542 Y85.037 E.02733
G1 X35.146 Y84.59 E.02733
G1 X35.807 Y84.232 E.02733
G1 X36.512 Y83.971 E.02733
G1 X37.247 Y83.812 E.02733
G1 X38.021 Y83.757 E.0282
G1 X112.139 Y83.769 E2.69368
G1 X112.929 Y83.851 E.02885
G1 X113.647 Y84.031 E.02689
G1 X114.35 Y84.319 E.02762
G1 X115.003 Y84.703 E.02756
G1 X115.595 Y85.176 E.02752
G1 X116.113 Y85.73 E.02755
G1 X116.552 Y86.36 E.02791
G1 X116.886 Y87.022 E.02695
G1 X117.127 Y87.737 E.02743
G1 X117.266 Y88.509 E.02849
G1 X117.308 Y89.172 E.02416
G1 X117.308 Y123.036 E1.23073
G1 X117.282 Y123.558 E.01899
G1 X117.078 Y124.574 E.03764
G1 X116.811 Y125.27 E.02711
G1 X116.443 Y125.929 E.02742
G1 X115.986 Y126.529 E.02742
G1 X115.448 Y127.058 E.02742
G1 X114.841 Y127.506 E.02742
G1 X114.177 Y127.863 E.02742
G1 X113.468 Y128.122 E.02742
G1 X112.73 Y128.279 E.02742
G1 X111.953 Y128.33 E.02829
G1 X108.059 Y128.312 E.14155
G1 X107.282 Y128.253 E.02832
G1 X106.544 Y128.089 E.02744
G1 X105.838 Y127.823 E.02744
G1 X105.176 Y127.459 E.02744
G1 X104.573 Y127.004 E.02744
G1 X104.04 Y126.469 E.02744
G1 X103.589 Y125.864 E.02744
G1 X103.228 Y125.201 E.02744
G1 X102.965 Y124.493 E.02744
G1 X102.805 Y123.755 E.02744
G1 X102.749 Y122.977 E.02832
G1 X102.749 Y119.506 E.12617
G1 X102.729 Y118.836 E.02435
G1 X102.619 Y118.608 E.00921
G1 X102.394 Y118.417 E.01071
G1 X102.094 Y118.345 E.01124
G1 X47.963 Y118.345 E1.96728
G1 X47.757 Y118.378 E.0076
G1 X47.526 Y118.514 E.00975
G1 X47.815 Y118.84 F36000
;TYPE:Outer wall
G1 F6000
G1 X47.745 Y119 E.00635
G1 X47.738 Y123.35 E.15809
G1 X47.682 Y123.909 E.02044
G1 X47.501 Y124.705 E.02965
G1 X47.21 Y125.465 E.02958
G1 X46.814 Y126.176 E.02958
G1 X46.322 Y126.825 E.02958
G1 X45.743 Y127.397 E.02958
G1 X45.089 Y127.882 E.02958
G1 X44.373 Y128.269 E.02958
G1 X43.61 Y128.552 E.02958
G1 X42.814 Y128.723 E.02958
G1 X41.994 Y128.782 E.02989
G1 X38.011 Y128.782 E.14475
G1 X37.185 Y128.723 E.03011
G1 X36.383 Y128.548 E.0298
G1 X35.615 Y128.262 E.0298
G1 X34.896 Y127.869 E.0298
G1 X34.239 Y127.377 E.0298
G1 X33.656 Y126.793 E.02999
G1 X33.168 Y126.141 E.02961
G1 X32.775 Y125.422 E.0298
G1 X32.489 Y124.653 E.0298
G1 X32.314 Y123.852 E.0298
G1 X32.255 Y123.026 E.03011
G1 X32.262 Y88.752 E1.24563
G1 X32.318 Y88.192 E.02043
G1 X32.499 Y87.397 E.02965
G1 X32.79 Y86.637 E.02958
G1 X33.186 Y85.925 E.02958
G1 X33.678 Y85.277 E.02958
G1 X34.257 Y84.705 E.02958
G1 X34.911 Y84.22 E.02958
G1 X35.626 Y83.833 E.02958
G1 X36.39 Y83.55 E.02958
G1 X37.185 Y83.378 E.02958
G1 X38.006 Y83.32 E.02989
G1 X111.263 Y83.32 E2.66239
G1 X112.17 Y83.333 E.03299
G1 X113.022 Y83.424 E.03112
G1 X113.799 Y83.622 E.02916
G1 X114.559 Y83.935 E.02988
G1 X115.265 Y84.353 E.02983
G1 X115.904 Y84.867 E.02979
G1 X116.463 Y85.468 E.02982
G1 X116.936 Y86.15 E.03017
G1 X117.296 Y86.869 E.02922
G1 X117.554 Y87.644 E.02969
G1 X117.702 Y88.478 E.03076
G1 X117.745 Y89.172 E.0253
G1 X117.745 Y123.047 E1.23112
G1 X117.717 Y123.613 E.02057
G1 X117.499 Y124.696 E.04016
G1 X117.208 Y125.456 E.02958
G1 X116.81 Y126.169 E.02968
G1 X116.315 Y126.819 E.02968
G1 X115.733 Y127.392 E.02968
G1 X115.076 Y127.876 E.02968
G1 X114.356 Y128.263 E.02968
G1 X113.589 Y128.543 E.02968
G1 X112.79 Y128.713 E.02968
G1 X111.967 Y128.767 E.02999
G1 X108.041 Y128.749 E.14268
G1 X107.217 Y128.686 E.03002
G1 X106.419 Y128.509 E.02971
G1 X105.654 Y128.221 E.02971
G1 X104.938 Y127.827 E.02971
G1 X104.285 Y127.335 E.02971
G1 X103.708 Y126.755 E.02971
G1 X103.22 Y126.1 E.02971
G1 X102.829 Y125.382 E.02971
G1 X102.544 Y124.616 E.02971
G1 X102.371 Y123.817 E.02971
G1 X102.312 Y122.993 E.03002
G1 X102.312 Y119 E.14511
G1 X102.242 Y118.84 E.00635
G1 X102.094 Y118.782 E.0058
G1 X47.963 Y118.782 E1.96728
G1 X47.852 Y118.825 E.00434
G1 X47.781 Y118.83
G1 E-.7 F1800
;WIPE_START
G1 F6000
G1 X47.745 Y119 E-.06149
G1 X47.743 Y119.795 E-.23851
;WIPE_END
G1 Z.6 F36000
G1 X47.329 Y119.795 Z.6
G1 X47.329 Y118.366
G1 X51.14 Y118.366
G1 X111.14 Y92.636
G1 X111.313 Y93.052
G1 Z.2
G1 E1 F1800
;TYPE:Inner wall
G1 F6000
G1 X111.183 Y93.104 E.00506
G1 X110.578 Y93.192 E.02221
G1 X110.293 Y93.192 E.01037
G1 X109.741 Y93.116 E.02023
G1 X109.106 Y92.874 E.02471
G1 X108.859 Y92.731 E.01037
G1 X108.436 Y92.404 E.01945
G1 X107.991 Y91.863 E.02547
G1 X107.848 Y91.616 E.01037
G1 X107.637 Y91.097 E.02036
G1 X107.53 Y90.429 E.02457
G1 X107.53 Y90.144 E.01037
G1 X107.618 Y89.539 E.02221
G1 X107.848 Y88.957 E.02273
G1 X108.28 Y88.333 E.0276
G1 X108.859 Y87.841 E.0276
G1 X109.546 Y87.517 E.0276
G1 X109.821 Y87.443 E.01037
G1 X110.436 Y87.372 E.02247
G1 X111.05 Y87.443 E.02247
G1 X111.746 Y87.691 E.02687
G1 X112.068 Y87.885 E.01365
G1 X112.505 Y88.234 E.02034
G1 X112.875 Y88.703 E.02169
G1 X113.032 Y88.979 E.01153
G1 X113.261 Y89.574 E.0232
G1 X113.341 Y90.144 E.02089
G1 X113.341 Y90.429 E.01037
G1 X113.272 Y90.947 E.01898
G1 X113.023 Y91.616 E.02593
G1 X112.591 Y92.24 E.0276
G1 X112.389 Y92.442 E.01037
G1 X111.765 Y92.874 E.0276
G1 X111.35 Y93.038 E.01622
G1 X111.155 Y92.647 F36000
G1 F6000
G1 X111.073 Y92.681 E.00324
G1 X110.521 Y92.758 E.02024
G1 X109.878 Y92.696 E.02347
G1 X109.274 Y92.47 E.02347
G1 X108.748 Y92.095 E.02347
G1 X108.337 Y91.596 E.02347
G1 X108.07 Y91.009 E.02347
G1 X107.963 Y90.372 E.02347
G1 X108.026 Y89.729 E.02347
G1 X108.252 Y89.124 E.02347
G1 X108.627 Y88.599 E.02347
G1 X109.125 Y88.188 E.02347
G1 X109.713 Y87.921 E.02347
G1 X110.35 Y87.814 E.02347
G1 X110.993 Y87.876 E.02347
G1 X111.579 Y88.095 E.02274
G1 X112.123 Y88.478 E.02418
G1 X112.528 Y88.969 E.02314
G1 X112.789 Y89.535 E.02267
G1 X112.908 Y90.201 E.02456
G1 X112.846 Y90.843 E.02347
G1 X112.619 Y91.448 E.02347
G1 X112.244 Y91.974 E.02347
G1 X111.598 Y92.47 E.02962
G1 X111.193 Y92.633 E.01586
G1 X110.994 Y92.245 F36000
;TYPE:Outer wall
G1 F6000
G1 X110.962 Y92.258 E.00125
G1 X110.464 Y92.325 E.01827
G1 X109.935 Y92.263 E.01934
G1 X109.441 Y92.066 E.01934
G1 X109.014 Y91.748 E.01934
G1 X108.684 Y91.33 E.01934
G1 X108.474 Y90.842 E.01934
G1 X108.397 Y90.315 E.01934
G1 X108.459 Y89.786 E.01934
G1 X108.656 Y89.292 E.01934
G1 X108.974 Y88.865 E.01934
G1 X109.391 Y88.535 E.01934
G1 X109.88 Y88.324 E.01934
G1 X110.407 Y88.248 E.01934
G1 X110.936 Y88.31 E.01934
G1 X111.412 Y88.499 E.01862
G1 X111.857 Y88.825 E.02005
G1 X112.181 Y89.235 E.01902
G1 X112.386 Y89.703 E.01854
G1 X112.474 Y90.258 E.02043
G1 X112.412 Y90.786 E.01934
G1 X112.215 Y91.281 E.01934
G1 X111.897 Y91.708 E.01934
G1 X111.43 Y92.066 E.0214
G1 X111.031 Y92.23 E.01568
G1 X110.993 Y92.252
G1 E-.7 F1800
;WIPE_START
G1 F6000
G1 X110.962 Y92.258 E-.02229
G1 X110.464 Y92.325 E-.15083
G1 X110.044 Y92.276 E-.12688
;WIPE_END
G1 Z.6 F36000
G1 X109.99 Y92.689 Z.6
G1 X107.593 Y121.211
G1 X107.149 Y121.224
G1 Z.2
G1 E1 F1800
;TYPE:Inner wall
G1 F6000
G1 X107.149 Y121.068 E.00565
G1 X107.285 Y120.321 E.0276
G1 X107.536 Y119.744 E.02287
G1 X107.899 Y119.257 E.02208
G1 X108.101 Y119.056 E.01037
G1 X108.555 Y118.712 E.02068
G1 X109.165 Y118.441 E.02426
G1 X109.44 Y118.368 E.01037
G1 X109.999 Y118.298 E.02045
G1 X110.669 Y118.368 E.02449
G1 X110.944 Y118.441 E.01037
G1 X111.507 Y118.684 E.02228
G1 X112.008 Y119.056 E.02267
G1 X112.499 Y119.635 E.0276
G1 X112.824 Y120.321 E.0276
G1 X112.96 Y121.068 E.0276
G1 X112.96 Y121.354 E.01037
G1 X112.891 Y121.871 E.01898
G1 X112.696 Y122.409 E.02078
G1 X112.499 Y122.787 E.0155
G1 X112.172 Y123.211 E.01944
G1 X111.695 Y123.606 E.02253
G1 X111.384 Y123.798 E.0133
G1 X110.71 Y124.048 E.02612
G1 X110.197 Y124.116 E.0188
G1 X109.912 Y124.116 E.01037
G1 X109.165 Y123.98 E.0276
G1 X108.645 Y123.761 E.02048
G1 X108.101 Y123.366 E.02445
G1 X107.748 Y122.968 E.01935
G1 X107.467 Y122.54 E.01859
G1 X107.218 Y121.871 E.02593
G1 X107.149 Y121.353 E.01898
G1 X107.149 Y121.264 E.00327
G1 X107.594 Y121.18 F36000
G1 F6000
G1 X107.645 Y120.654 E.01921
G1 X107.871 Y120.049 E.02347
G1 X108.246 Y119.523 E.02347
G1 X108.79 Y119.081 E.0255
G1 X109.332 Y118.845 E.02147
G1 X109.969 Y118.739 E.02347
G1 X110.612 Y118.801 E.02347
G1 X111.217 Y119.027 E.02347
G1 X111.742 Y119.402 E.02347
G1 X112.153 Y119.901 E.02347
G1 X112.42 Y120.488 E.02347
G1 X112.527 Y121.125 E.02347
G1 X112.465 Y121.768 E.02347
G1 X112.293 Y122.242 E.01831
G1 X112.153 Y122.521 E.01136
G1 X111.841 Y122.926 E.01858
G1 X111.429 Y123.26 E.01925
G1 X111.217 Y123.395 E.00916
G1 X110.636 Y123.617 E.02258
G1 X110.14 Y123.683 E.01819
G1 X109.497 Y123.621 E.02347
G1 X108.893 Y123.395 E.02347
G1 X108.367 Y123.019 E.02347
G1 X107.956 Y122.521 E.02347
G1 X107.689 Y121.933 E.02347
G1 X107.582 Y121.296 E.02347
G1 X107.59 Y121.22 E.00281
G1 X108.018 Y121.22 F36000
;TYPE:Outer wall
G1 F6000
G1 X108.078 Y120.711 E.01864
G1 X108.275 Y120.216 E.01934
G1 X108.593 Y119.789 E.01934
G1 X109.039 Y119.441 E.02057
G1 X109.507 Y119.246 E.01842
G1 X110.026 Y119.172 E.01906
G1 X110.555 Y119.234 E.01934
G1 X111.049 Y119.431 E.01934
G1 X111.476 Y119.749 E.01934
G1 X111.806 Y120.167 E.01934
G1 X112.016 Y120.656 E.01934
G1 X112.093 Y121.182 E.01934
G1 X112.031 Y121.711 E.01934
G1 X111.834 Y122.206 E.01934
G1 X111.516 Y122.632 E.01934
G1 X111.099 Y122.962 E.01934
G1 X110.61 Y123.173 E.01934
G1 X110.083 Y123.25 E.01934
G1 X109.554 Y123.188 E.01934
G1 X109.06 Y122.991 E.01934
G1 X108.633 Y122.673 E.01934
G1 X108.303 Y122.255 E.01934
G1 X108.093 Y121.766 E.01934
G1 X108.019 Y121.26 E.0186
G1 X107.948 Y121.181
G1 E-.7 F1800
;WIPE_START
G1 F6000
G1 X108.078 Y120.711 E-.16564
G1 X108.243 Y120.295 E-.13436
;WIPE_END
G1 Z.6 F36000
G1 X107.858 Y120.135 Z.6
G1 X102.728 Y118.366
G1 X47.329 Y118.366
G1 X39.95 Y118.749
G1 X39.313 Y118.833
G1 X38.72 Y119.079
G1 X38.678 Y119.11
G1 X38.404 Y118.753
G1 Z.2
G1 E1 F1800
;TYPE:Inner wall
G1 F6000
G1 X38.498 Y118.684 E.00422
G1 X39.061 Y118.441 E.02228
G1 X39.336 Y118.368 E.01037
G1 X39.911 Y118.297 E.02106
G1 X40.565 Y118.368 E.02389
G1 X40.84 Y118.441 E.01037
G1 X41.328 Y118.645 E.01921
G1 X41.904 Y119.056 E.02571
G1 X42.106 Y119.257 E.01037
G1 X42.47 Y119.745 E.0221
G1 X42.794 Y120.597 E.03313
G1 X42.865 Y121.213 E.02254
G1 X42.794 Y121.825 E.02241
G1 X42.616 Y122.351 E.02016
G1 X42.395 Y122.787 E.01778
G1 X42.081 Y123.195 E.01873
G1 X41.663 Y123.551 E.01993
G1 X41.28 Y123.798 E.0166
G1 X40.611 Y124.047 E.02593
G1 X40.093 Y124.116 E.01898
G1 X39.808 Y124.116 E.01037
G1 X39.061 Y123.98 E.0276
G1 X38.561 Y123.771 E.01967
G1 X38.01 Y123.376 E.02467
G1 X37.68 Y123.014 E.01782
G1 X37.368 Y122.552 E.02023
G1 X37.114 Y121.871 E.02642
G1 X37.045 Y121.353 E.01898
G1 X37.045 Y121.068 E.01037
G1 X37.181 Y120.321 E.0276
G1 X37.506 Y119.635 E.0276
G1 X37.997 Y119.056 E.0276
G1 X38.372 Y118.777 E.01699
G1 X38.752 Y119.062 F36000
G1 F6000
G1 X39.228 Y118.845 E.019
G1 X39.865 Y118.739 E.02347
G1 X40.508 Y118.801 E.02347
G1 X41.112 Y119.027 E.02347
G1 X41.638 Y119.402 E.02347
G1 X42.049 Y119.901 E.02347
G1 X42.36 Y120.654 E.02962
G1 X42.428 Y121.212 E.02044
G1 X42.36 Y121.768 E.02036
G1 X42.134 Y122.373 E.02347
G1 X41.759 Y122.898 E.02347
G1 X41.261 Y123.309 E.02347
G1 X40.673 Y123.577 E.02347
G1 X40.036 Y123.683 E.02347
G1 X39.393 Y123.621 E.02347
G1 X38.788 Y123.395 E.02347
G1 X38.276 Y123.029 E.02288
G1 X37.852 Y122.521 E.02405
G1 X37.59 Y121.945 E.02299
G1 X37.478 Y121.296 E.02393
G1 X37.54 Y120.654 E.02347
G1 X37.767 Y120.049 E.02347
G1 X38.142 Y119.523 E.02347
G1 X38.64 Y119.113 E.02347
G1 X38.716 Y119.078 E.00301
G1 X38.929 Y119.45 F36000
;TYPE:Outer wall
G1 F6000
G1 X39.395 Y119.249 E.01843
G1 X39.922 Y119.172 E.01934
G1 X40.451 Y119.234 E.01934
G1 X40.945 Y119.431 E.01934
G1 X41.372 Y119.749 E.01934
